public/images/portal.svg

<svg width="24" height="24" viewBox="0 0 24 24" fill="none" xmlns="http://www.w3.org/2000/svg">
<path d="M5.00003 13.18V15.99C5.00003 16.72 5.40003 17.4 6.04003 17.75L11.04 20.48C11.64 20.81 12.36 20.81 12.96 20.48L17.96 17.75C18.6 17.4 19 16.72 19 15.99V13.18L12.96 16.48C12.36 16.81 11.64 16.81 11.04 16.48L5.00003 13.18ZM11.04 3.52L2.61003 8.12C1.92003 8.5 1.92003 9.5 2.61003 9.88L11.04 14.48C11.64 14.81 12.36 14.81 12.96 14.48L21 10.09V16C21 16.55 21.45 17 22 17C22.55 17 23 16.55 23 16V9.59C23 9.22 22.8 8.89 22.48 8.71L12.96 3.52C12.36 3.2 11.64 3.2 11.04 3.52Z" fill="#3F4040"/>
<path d="M5.00845 16.2163C4.98943 15.6924 5.00845 13.6034 5.00845 13.0808C5.00845 12.5582 10.7621 16.6928 10.8597 16.7389C10.9574 16.785 12.8101 16.7389 12.8101 16.7389C12.8101 16.7389 17.9716 13.6944 18.6614 13.0808C19.3512 12.4671 18.7955 15.529 18.6614 16.2163L18.6601 16.2231C18.5268 16.9062 18.4517 17.2907 18.1738 17.7841C17.8949 18.2791 13.1906 20.7522 12.8101 20.9196C12.4297 21.087 11.4316 20.945 11.3473 20.9196C11.263 20.8943 6.17721 17.928 5.98366 17.7841C5.79011 17.6402 5.02748 16.7402 5.00845 16.2163Z" fill="#312ED7" stroke="#312ED7"/>
</svg>

<svg width="24" height="24" fill="none" xmlns="http://www.w3.org/2000/svg"><path d="M5 13.18v2.81c0 .73.4 1.41 1.04 1.76l5 2.73c.6.33 1.32.33 1.92 0l5-2.73c.64-.35 1.04-1.03 1.04-1.76v-2.81l-6.04 3.3c-.6.33-1.32.33-1.92 0L5 13.18Zm6.04-9.66-8.43 4.6c-.69.38-.69 1.38 0 1.76l8.43 4.6c.6.33 1.32.33 1.92 0L21 10.09V16c0 .55.45 1 1 1s1-.45 1-1V9.59c0-.37-.2-.7-.52-.88l-9.52-5.19a2.04 2.04 0 0 0-1.92 0Z" fill="#3F4040"/><path d="M5.008 16.216c-.019-.524 0-2.613 0-3.135 0-.523 5.754 3.612 5.852 3.658.097.046 1.95 0 1.95 0s5.162-3.045 5.851-3.658c.69-.614.134 2.448 0 3.135v.007c-.134.683-.21 1.068-.487 1.561-.28.495-4.983 2.968-5.364 3.136-.38.167-1.378.025-1.463 0-.084-.026-5.17-2.992-5.363-3.136-.194-.144-.957-1.044-.976-1.568Z" fill="#312ED7" stroke="#312ED7"/></svg>
